X: 1
T: O'Grady's
M: 6/8
L: 1/8
R: jig
K: Edor
|:BGB EBG|AFD DFA|GEC CDE|FGA FGA|
BGB EBG|AFd dBA|BAF EFD|1B,CD ~E3:|2B,CD EFA||
|:Bef gfe|fda dbd|e=cc efg|fed fed|
Bef gfe|Ade fed|BAF EFD|B,CD E2 A:|
